packages/core/src/svgs/tokens/branded/SDT.svg

<svg width="24" height="24" viewBox="0 0 24 24" fill="none" xmlns="http://www.w3.org/2000/svg">
<path d="M11.3749 5.85436V2L10.6713 2.08874C5.77499 2.705 2 6.91435 2 11.9999C2 17.0856 5.77436 21.2956 10.6713 21.9112L11.3749 22V20.7581C11.015 20.7318 10.7156 20.6725 10.3574 20.6006L10.125 20.5544V20.5631C6.20561 19.733 3.24999 16.2212 3.24999 11.9999C3.24999 7.77936 6.20561 4.26685 10.125 3.43686V4.94311C8.65998 5.54435 7.62498 6.96436 7.62498 8.62873C7.62498 10.2931 8.65998 11.7131 10.125 12.3138C10.6136 12.4643 10.8887 12.5337 11.3749 12.62V11.4031L10.9187 11.2762C9.73427 10.9481 8.87497 9.88246 8.87497 8.62873C8.87497 7.37498 9.73427 6.30999 10.9187 5.98124L11.3749 5.85436ZM12.625 18.1456V22L13.3288 21.9112C18.225 21.2956 22 17.0856 22 11.9999C22 6.91435 18.2255 2.70437 13.3288 2.08874L12.625 2V3.24187C12.9849 3.26812 13.2843 3.32749 13.6424 3.39937L13.8749 3.44561V3.43749C17.7943 4.26687 20.7499 7.77936 20.7499 11.9999C20.7499 16.2212 17.7943 19.733 13.8749 20.5631V19.0568C15.3399 18.4563 16.3749 17.0356 16.3749 15.3712C16.3749 13.7068 15.3399 12.2868 13.8749 11.6863C13.4661 11.5543 13.0485 11.4519 12.625 11.38V12.5968L13.0811 12.7237C14.2656 13.0518 15.125 14.1174 15.125 15.3712C15.125 16.6249 14.2656 17.6899 13.0811 18.0188L12.625 18.1456Z" fill="#40BF8E"/>
</svg>

<svg xmlns="http://www.w3.org/2000/svg" width="24" height="24" fill="none" viewBox="0 0 24 24">
    <path fill="#40BF8E" d="M11.375 5.854V2l-.704.089C5.775 2.705 2 6.914 2 11.999c0 5.087 3.774 9.297 8.671 9.912l.704.089v-1.242a8 8 0 0 1-1.018-.157l-.232-.047v.01C6.205 19.732 3.25 16.22 3.25 12s2.956-7.733 6.875-8.563v1.506c-1.465.601-2.5 2.021-2.5 3.686 0 1.664 1.035 3.084 2.5 3.685.489.15.764.22 1.25.306v-1.217l-.456-.127c-1.185-.328-2.044-1.394-2.044-2.647 0-1.254.86-2.319 2.044-2.648zm1.25 12.292V22l.704-.089C18.225 21.296 22 17.086 22 12s-3.774-9.296-8.671-9.911L12.625 2v1.242c.36.026.66.085 1.017.157l.233.047v-.009c3.92.83 6.875 4.342 6.875 8.563s-2.956 7.733-6.875 8.563v-1.506c1.465-.6 2.5-2.021 2.5-3.686 0-1.664-1.035-3.084-2.5-3.685a9 9 0 0 0-1.25-.306v1.217l.456.127c1.185.328 2.044 1.393 2.044 2.647s-.86 2.319-2.044 2.648z"/>
</svg>
